T: Pride And Joy
M: 2/4
L: 1/8
K: Gmaj
|:G2cB | cdef | gfga | g4 | fefg | fedB | cBce | dcBA | ~ ..|:G2 cB | cd ef | gf ga | g4 | fe fg | fe dB | cB ce | dc BA | ~ ..|:G2 c>B c>de>f | g>fg>a g4 | ~ ???
